X: 30672
T: Operant Conditioning
R: reel
M: 4/4
K: Dminor
|:cded cAA2|cAGEF2AF|AGFD FEDC|A,2C(E E)EFF|
EFED FGFD|CDFD FGG2|AGFD FEDC|A,DCE FDD2:|
|:dggfd2cA|cded eaa2|bafef2fe|f2fe fede|
dcAG AGFD|CDFD FGG2|AGFD FEDC|A,DCE FDD2:|

